X: 1145
T: The Ralph River Breakdown (A63)
N: page A63
N: heptatonic
M: 2/4
L: 1/16
K: G
u(3^DEF|:"G"vG2uBc BAGuA|BdBA BEDuG|EDGD "C"vB,CDG|uBc[ce][ce] [ce]udcB|"D"ABAuG FDFG|
A^cde f2ugf|1,3 egfe dBeud|[DA][DB][DB][DB] [DB]2uDF:|[2,4 "C"egfe "D"dcAF|"G"G2[GB][GB] [GB]2Bd|:
"G"vg2bg agduB|"C"AcBA GEDuG|EDGD B,CDG|vBc[ce][ce] ucdcB|vABAG uFDFG|
A^cde f2ugf|1,3 egfe "D"dBed |[DB]2 [DB][DB] [DB]2 Bd:|[2,4 egfe dcAF|G2[GB][GB] [GB]2 z2|
